X:1
T:The Stately Southerner
M:4/4
L:1/8
K:F
 z6 C2| C2 F2 F2C-C| DE F4 F2|E-D C2 _B,2 C2| C6F-F| A2 A2G-A _BB|\
 A2 E2 F2G-G|A-G F2 E2 F2| F6F-F| A2A-AG-A _B2| A2 E2 F2 GG|A-G F2 E2F-F|\
 F6C-C| C2 F2 F2C-C| D2 E2 F2 FF|E-D C2 _B,2 C2| C6 z2|

